svgs/sharp-regular/siren.svg

<svg xmlns="http://www.w3.org/2000/svg" viewBox="0 0 448 512"><!--! Font Awesome Pro 6.6.0 by @fontawesome - https://fontawesome.com License - https://fontawesome.com/license (Commercial License) Copyright 2024 Fonticons, Inc. --><path d="M345.6 304l48.4 0L368 96 80 96 54 304l48.4 0 20-160 203.3 0 20 160zm-165.5 0l11.8-94 2.2-18-32.2 0-1.8 14-12.2 98 32.2 0zM48 384l352 0 0 48L48 432l0-48zM0 336l0 48 0 48 0 48 48 0 352 0 48 0 0-48 0-48 0-48-48 0L48 336 0 336z"/></svg>

<svg xmlns="http://www.w3.org/2000/svg" viewBox="0 0 448 512"><!--! Font Awesome Pro 6.4.0 by @fontawesome - https://fontawesome.com License - https://fontawesome.com/license (Commercial License) Copyright 2023 Fonticons, Inc. --><path d="M345.6 304H394L368 96H80L54 304h48.4l20-160H325.6l20 160zm-165.5 0l11.8-94 2.2-18H161.9l-1.8 14-12.2 98h32.2zM48 384H400v48H48V384zM0 336v48 48 48H48 400h48V432 384 336H400 48 0z"/></svg>
